svgs/sharp-solid/list-radio.svg

<svg xmlns="http://www.w3.org/2000/svg" viewBox="0 0 512 512"><!--! Font Awesome Pro 6.6.0 by @fontawesome - https://fontawesome.com License - https://fontawesome.com/license (Commercial License) Copyright 2024 Fonticons, Inc. --><path d="M64 160A64 64 0 1 0 64 32a64 64 0 1 0 0 128zM192 64l-32 0 0 64 32 0 288 0 32 0 0-64-32 0L192 64zm0 160l-32 0 0 64 32 0 288 0 32 0 0-64-32 0-288 0zm0 160l-32 0 0 64 32 0 288 0 32 0 0-64-32 0-288 0zM40 416a24 24 0 1 1 48 0 24 24 0 1 1 -48 0zm88 0A64 64 0 1 0 0 416a64 64 0 1 0 128 0zM64 232a24 24 0 1 1 0 48 24 24 0 1 1 0-48zm0 88a64 64 0 1 0 0-128 64 64 0 1 0 0 128z"/></svg>

<svg xmlns="http://www.w3.org/2000/svg" viewBox="0 0 512 512"><!--! Font Awesome Pro 6.4.0 by @fontawesome - https://fontawesome.com License - https://fontawesome.com/license (Commercial License) Copyright 2023 Fonticons, Inc. --><path d="M64 160A64 64 0 1 0 64 32a64 64 0 1 0 0 128zM192 64H160v64h32H480h32V64H480 192zm0 160H160v64h32H480h32V224H480 192zm0 160H160v64h32H480h32V384H480 192zM40 416a24 24 0 1 1 48 0 24 24 0 1 1 -48 0zm88 0A64 64 0 1 0 0 416a64 64 0 1 0 128 0zM64 232a24 24 0 1 1 0 48 24 24 0 1 1 0-48zm0 88a64 64 0 1 0 0-128 64 64 0 1 0 0 128z"/></svg>
